X: 15
T: Concord Police v.2
P: piffero primo a0021
O: Dan Moylan
%R: jig
F: http://ancients.sudburymuster.org/mus/sng/pdf/concordpC0.pdf
Z: 2020 John Chambers <jc:trillian.mit.edu>
M: 6/8
L: 1/8
K: D
(3(C/D/E/ |\
"^>"F)>CD DEF | "^>"G>CE EFG | CDF FAF | GCD EDC |\
"^>"F>CD DEF | "^>"G>CE EFG | "^>"F>AF "^>"GBG |  FGG F2 :|
|: (A/B/ |\
"^>"c)>cc cdB | AGF EDC | "^>"c>cc cdB | AB=c ^c3 |\
"^>"c>cc cdB | AGF EDC | "^>"F>AF "^>"GBG |  FGG F2 :|


